src/lib/packages/icons/src/assets/line/desktop.svg

<svg xmlns="http://www.w3.org/2000/svg" width="24" height="24" fill="none"><path fill="currentColor" d="M18 2.25H6C3.582 2.25 2.25 3.582 2.25 6v8c0 2.418 1.332 3.75 3.75 3.75h3.25v2.5H7.5a.75.75 0 0 0 0 1.5h9a.75.75 0 0 0 0-1.5h-1.75v-2.5H18c2.418 0 3.75-1.332 3.75-3.75V6c0-2.418-1.332-3.75-3.75-3.75ZM6 3.75h12c1.577 0 2.25.673 2.25 2.25v6.25H3.75V6c0-1.577.673-2.25 2.25-2.25Zm7.25 16.5h-2.5v-2.5h2.5v2.5Zm4.75-4H6c-1.577 0-2.25-.673-2.25-2.25v-.25h16.5V14c0 1.577-.673 2.25-2.25 2.25Z"/></svg>

<svg width="24" height="24" viewBox="0 0 24 24" fill="none" xmlns="http://www.w3.org/2000/svg">
<path d="M18 2.25H6C3.582 2.25 2.25 3.582 2.25 6V14C2.25 16.418 3.582 17.75 6 17.75H9.25V20.25H7.5C7.086 20.25 6.75 20.586 6.75 21C6.75 21.414 7.086 21.75 7.5 21.75H16.5C16.914 21.75 17.25 21.414 17.25 21C17.25 20.586 16.914 20.25 16.5 20.25H14.75V17.75H18C20.418 17.75 21.75 16.418 21.75 14V6C21.75 3.582 20.418 2.25 18 2.25ZM6 3.75H18C19.577 3.75 20.25 4.423 20.25 6V12.25H3.75V6C3.75 4.423 4.423 3.75 6 3.75ZM13.25 20.25H10.75V17.75H13.25V20.25ZM18 16.25H14H10H6C4.423 16.25 3.75 15.577 3.75 14V13.75H20.25V14C20.25 15.577 19.577 16.25 18 16.25Z" fill="currentColor"/>
</svg>
